icons/outline/inbox-stack.svg

<svg width="24" height="24" viewBox="0 0 24 24" fill="none" xmlns="http://www.w3.org/2000/svg">
<path d="M7.875 14.25L9.08906 16.1925C9.50022 16.8504 10.2213 17.25 10.9971 17.25H13.0029C13.7787 17.25 14.4998 16.8504 14.9109 16.1925L16.125 14.25M2.40961 9H7.04584C7.79813 9 8.50065 9.37598 8.91795 10.0019L9.08205 10.2481C9.49935 10.874 10.2019 11.25 10.9542 11.25H13.0458C13.7981 11.25 14.5007 10.874 14.9179 10.2481L15.0821 10.0019C15.4993 9.37598 16.2019 9 16.9542 9H21.5904M2.40961 9C2.30498 9.2628 2.25 9.54503 2.25 9.83233V12C2.25 13.2426 3.25736 14.25 4.5 14.25H19.5C20.7426 14.25 21.75 13.2426 21.75 12V9.83233C21.75 9.54503 21.695 9.2628 21.5904 9M2.40961 9C2.50059 8.77151 2.62911 8.55771 2.79167 8.36805L6.07653 4.53572C6.50399 4.03702 7.12802 3.75 7.78485 3.75H16.2151C16.872 3.75 17.496 4.03702 17.9235 4.53572L21.2083 8.36805C21.3709 8.55771 21.4994 8.77151 21.5904 9M4.5 20.25H19.5C20.7426 20.25 21.75 19.2426 21.75 18V15.375C21.75 14.7537 21.2463 14.25 20.625 14.25H3.375C2.75368 14.25 2.25 14.7537 2.25 15.375V18C2.25 19.2426 3.25736 20.25 4.5 20.25Z" stroke="#0F172A" stroke-width="1.5" stroke-linecap="round" stroke-linejoin="round"/>
</svg>

<svg xmlns="http://www.w3.org/2000/svg" fill="none" viewBox="0 0 24 24" stroke-width="1.5" stroke="currentColor" aria-hidden="true">
  <path stroke-linecap="round" stroke-linejoin="round" d="M7.875 14.25l1.214 1.942a2.25 2.25 0 001.908 1.058h2.006c.776 0 1.497-.4 1.908-1.058l1.214-1.942M2.41 9h4.636a2.25 2.25 0 011.872 1.002l.164.246a2.25 2.25 0 001.872 1.002h2.092a2.25 2.25 0 001.872-1.002l.164-.246A2.25 2.25 0 0116.954 9h4.636M2.41 9a2.25 2.25 0 00-.16.832V12a2.25 2.25 0 002.25 2.25h15A2.25 2.25 0 0021.75 12V9.832c0-.287-.055-.57-.16-.832M2.41 9a2.25 2.25 0 01.382-.632l3.285-3.832a2.25 2.25 0 011.708-.786h8.43c.657 0 1.281.287 1.709.786l3.284 3.832c.163.19.291.404.382.632M4.5 20.25h15A2.25 2.25 0 0021.75 18v-2.625c0-.621-.504-1.125-1.125-1.125H3.375c-.621 0-1.125.504-1.125 1.125V18a2.25 2.25 0 002.25 2.25z"/>
</svg>
